X:1
L:1/16
M:2/4
K:G
V:1 treble
 V:1  z2 | z | z | z | z | z | z | z | z | z | z | z | z | z | z | z | z | z | z | z | z4 z2 d2 | 
  cB AG gf ed | de Ac B2 F2 | GB dg dc cB | B2A2 z2 | 
